src/assets/images/sector.svg

<svg xmlns="http://www.w3.org/2000/svg" viewBox="0 0 24 24" xmlns="http://www.w3.org/2000/svg"><g fill="currentColor"><path d="m22.49 11.64-3.23-5.59h-5.45l-2.54-4.41h-6.46l-3.23 5.59 2.64 4.56-2.67 4.62 3.23 5.59h6.45l2.77-4.77h5.28zm-16.49-8h4.14l2 3.54-2.1 3.64h-4.04l-2.11-3.59zm4.08 16.36h-4.15l-2.07-3.59 2.07-3.59h4.15l2.07 3.59zm3.92-4.77-2-3.54 2-3.64h4.09l2.07 3.59-2.07 3.59z"/><path d="m9 8.92 1-1.73-1-1.73h-2l-1 1.73 1 1.73z"/><path d="m7 14.68-1 1.73 1 1.73h2l1-1.73-1-1.73z"/></g></svg>

<svg id="Designs" xmlns="http://www.w3.org/2000/svg" viewBox="0 0 24 24"><defs><style>.cls-1{fill:#231f20;}</style></defs><title>Sector</title><path class="cls-1" d="M22.49,11.64,19.26,6.05H13.81L11.27,1.64H4.81L1.58,7.23l2.64,4.56L1.55,16.41,4.78,22h6.45L14,17.23h5.28ZM6,3.64h4.14l2,3.54-2.1,3.64H6L3.89,7.23ZM10.08,20H5.93L3.86,16.41l2.07-3.59h4.15l2.07,3.59ZM14,15.23l-2-3.54L14,8.05h4.09l2.07,3.59-2.07,3.59Z"/><polygon class="cls-1" points="9 8.92 10 7.19 9 5.46 7 5.46 6 7.19 7 8.92 9 8.92"/><polygon class="cls-1" points="7 14.68 6 16.41 7 18.14 9 18.14 10 16.41 9 14.68 7 14.68"/></svg>
